icons/time-calendar-4-filled.svg

<svg fill="none" viewBox="0 0 25 24"><path stroke="currentColor" stroke-linecap="round" stroke-linejoin="round" stroke-width="2" d="M4.1 8.5h15.8m-13.7-6.5v1.7m11.4-1.7v1.7m0 0h-11.2a3.4 3.4 0 0 0-3.4 3.4v11.2a3.4 3.4 0 0 0 3.4 3.4h11.2a3.4 3.4 0 0 0 3.4-3.4v-11.2a3.4 3.4 0 0 0-3.4-3.4Zm3.4 11.5h-6.2m0 0h-5.6m5.6 0v5.6m0-5.6v-6.2m-5.6 6.2h-6.2m6.2 0v5.6m0-5.6v-6.2"/></svg>

<svg fill="none" viewBox="0 0 25 24"><path stroke="currentColor" stroke-linecap="round" stroke-linejoin="round" stroke-width="2" d="M4.1 8.5H20M6.2 2v1.7M17.6 2v1.7m0 0H6.4A3.4 3.4 0 0 0 3 7v11.2a3.4 3.4 0 0 0 3.4 3.4h11.2a3.4 3.4 0 0 0 3.4-3.4V7.1a3.4 3.4 0 0 0-3.4-3.4M21 15.2h-6.2m0 0H9.2m5.6 0v5.6m0-5.6V9m-5.6 6.2H3m6.2 0v5.6m0-5.6V9"/></svg>
